!!!!SEGMENT: pl-wumfc--r282--001-002_paderewski-ignacy-jan--exercises-1-exercise-2.krn
!!!cenid: 18xx:3161
!!!COM: Paderewski, Ignacy Jan
!!!COM-rismID: pe30029943
!!!CDT: 1860/11/18-1941/06/29
!!!CNT: Polish
!!!GTL: [Exercises 1]
!!!OTL: [Exercise] 2
!!!OMV: 002
!!!PDT:
!!!AGN:
!!!SMS-siglum: PL-Wumfc
!!!SMS-shelfmark: R282
!!!SMS-shelfwork: 001-002 G
!!!SMS-variant:
!!!SMS-altvar:
!!!NIFC-rismSourceID: 1001158933
!!!NIFC-islandoraID: pl-wumfc:419
!!!URL-pdf-islandora: https://repozytorium.nifc.pl/islandora/object/pl-wumfc%3A419/datastream/PDF/view
!!!URL-scan: https://polish.musicsources.pl/pl/lokalizacje/galeria/rekopisy/4702 @EN{Scan on Polish Music Sources Website} @PL{Skany w portalu Dziedzictwo Muzyki Polskiej w otwartym dostępie}
!!!ONB-nifc: UWAGA: pierwsza grupa ćwiczeń na skanach 0004-0007
!!!AIN: 1 piano
!!!key: e
**kern	**kern
*part1	*part1
*staff2	*staff1
*>[A,A,B]	*>[A,A,B]
*>A	*>A
*I"[Pianoforte]	*I"[Pianoforte]
*Ipiano	*Ipiano
*ICklav	*ICklav
*clefF4	*clefG2
*k[f#]	*k[f#]
*e:	*e:
!LO:TX:a:i:t=C. f	!LO:TX:t=P:problem=brak oznaczenia metrycznego / kluczy
4E\	4ee\
=1	=1
4A\	4cc\
4G\	4b\
4F#\	4a/
4E\	4cc\
=2	=2
2D#X\	4b\
.	4a/
4E;\	4g;/
4B\	4d\
=3	=3
4c\	4e/
4c\	4e/
4B\	4f#/
4B\	4g#X/
=4	=4
!	!LO:N:vis=2
2.A;\	2.a;/
=:|!	=:|!
*>B	*>B
4c\	4a/
=5	=5
4B\	4g/
4G\	4gg 4b/
4A\	4ff# 4a/
4B\	4dd 4g/
!!LO:LB:g=original
=6	=6
2c\	4ee\
.	4dd\
4c;\	4cc\
4G\	4gg\
=7	=7
4A\	4ff#\
4G\	4ee\
4A\	4cc\
4F#\	4dd\
=8	=8
!	!LO:N:vis=2
2.E;\	2.ee;\
4c\	4aa\
=9	=9
4B\	4gg\
4d\	4ff#\
4c\	4ee\
4B\	4gg\
=10	=10
2A\	4ff#\
.	4ee\
4B;\	4dd#X;\
!	!LO:TX:t=P:problem=niejednoznaczny zapis łuku
4E\	(4ee\
=11	=11
4F#\	4a/
4E\	4cc\)
4D#X\	4b/
4D#\	4a/
=12	=12
!	!LO:N:vis=2
2.E;\	2.g;/
==	==
*-	*-
!!!system-decoration: {(s1,s2)}
!!!ENC: Anastazja Marusiak
!!!END: 2021-11-10
!!!ENC: Andrzej Kubiczek
!!!END: 2021-11-10
